svgs/regular/trowel-bricks.svg

<svg xmlns="http://www.w3.org/2000/svg" viewBox="0 0 512 512"><!--! Font Awesome Pro 6.6.0 by @fontawesome - https://fontawesome.com License - https://fontawesome.com/license (Commercial License) Copyright 2024 Fonticons, Inc. --><path d="M240.8 4.8c-9.4-5.8-21.2-6.4-31.1-1.4l-192 96C6.8 104.8 0 115.9 0 128s6.8 23.2 17.7 28.6l192 96c9.9 5 21.7 4.4 31.1-1.4s15.2-16.1 15.2-27.2l0-72 89 0c3.6 13.8 16.1 24 31 24l88 0c26.5 0 48-21.5 48-48s-21.5-48-48-48l-88 0c-14.9 0-27.4 10.2-31 24l-89 0 0-72c0-11.1-5.7-21.4-15.2-27.2zM288 384l16 0 32 0 128 0 0 80-208 0 0-80 32 0zm-80 0l0 80L48 464l0-80 160 0zm256-48l-128 0 0-64 128 0 0 64zM288 272l0 16 0 48-48 0L48 336c-26.5 0-48 21.5-48 48l0 80c0 26.5 21.5 48 48 48l416 0c26.5 0 48-21.5 48-48l0-80c0-1.3-.1-2.7-.2-4c.1-1.3 .2-2.7 .2-4l0-104c0-26.5-21.5-48-48-48l-128 0c-26.5 0-48 21.5-48 48z"/></svg>

<svg xmlns="http://www.w3.org/2000/svg" viewBox="0 0 512 512"><!--! Font Awesome Pro 6.4.0 by @fontawesome - https://fontawesome.com License - https://fontawesome.com/license (Commercial License) Copyright 2023 Fonticons, Inc. --><path d="M240.8 4.8c-9.4-5.8-21.2-6.4-31.1-1.4l-192 96C6.8 104.8 0 115.9 0 128s6.8 23.2 17.7 28.6l192 96c9.9 5 21.7 4.4 31.1-1.4s15.2-16.1 15.2-27.2V152h89c3.6 13.8 16.1 24 31 24h88c26.5 0 48-21.5 48-48s-21.5-48-48-48H376c-14.9 0-27.4 10.2-31 24H256V32c0-11.1-5.7-21.4-15.2-27.2zM288 384h16 32H464v80H256V384h32zm-80 0v80H48V384H208zm256-48H336V272H464v64zM288 272v16 48H240 48c-26.5 0-48 21.5-48 48v80c0 26.5 21.5 48 48 48H464c26.5 0 48-21.5 48-48V384c0-1.3-.1-2.7-.2-4c.1-1.3 .2-2.7 .2-4V272c0-26.5-21.5-48-48-48H336c-26.5 0-48 21.5-48 48z"/></svg>
